icon-themes/sifr_svg/cmd/sc_arrowshapes.left-right-arrow-callout.svg

<svg viewBox="0 0 16 16" xmlns="http://www.w3.org/2000/svg"><g fill="#555753"><path d="m16 8-4-4v2h-2v-4h-4v4h-2v-2l-4 4 4 4v-2h2v4h4v-4h2v2z"/><path d="m16 8-4-4v2h-2v-4h-4v4h-2v-2l-4 4 4 4v-2h2v4h4v-4h2v2z"/></g></svg>

<svg xmlns="http://www.w3.org/2000/svg" viewBox="0 0 16 16">
  <path
     style="fill:#555753"
     d="M 16,8 12,4 V 6 H 10 V 2 H 6 V 6 H 4 V 4 l -4,4 4,4 v -2 h 2 v 4 h 4 v -4 h 2 v 2 z"
     />
  <path
      style="fill:#555753"
      d="M 16,8 12,4 V 6 H 10 V 2 H 6 V 6 H 4 V 4 l -4,4 4,4 v -2 h 2 v 4 h 4 v -4 h 2 v 2 z"
     />
</svg>
